X:109
T:Mona's Delight
M:4/4
L:1/8
K:G
D2 | G2 GA B2 AG | A2 AB c2 BA | G2 GB d2 BG | AF D2 AF D2 |
G2 GA B2 AG | A2 AB c2 BA | BdBG AcAF |1 G2 G2 G2 :|2 G2 G2 G4 ||
d2 dc BcdB | c2 cB ABcA | B2 BA GABG | A2 F2 D4 |
d2 dc BcdB | c2 cB ABcA | BdBG AcAF | G2 G2 G4 :||
